assets/ayaneo/neo/home.svg

<svg width="32" height="32" version="1.1" xml:space="preserve" xmlns="http://www.w3.org/2000/svg"><path d="m16 1.5c-8.008 0-14.5 6.492-14.5 14.5s6.492 14.5 14.5 14.5 14.5-6.492 14.5-14.5-6.492-14.5-14.5-14.5zm-5.0879 8.9004h2.7676v4.4473h4.6562v-4.4473h2.752v11.199h-2.752v-4.3828h-4.6562v4.3828h-2.7676v-11.199z" fill="#fff" stroke-width=".059354"/></svg>

<?xml version="1.0" encoding="UTF-8" standalone="no"?>
<svg
   width="32"
   height="32"
   version="1.1"
   id="svg2"
   xml:space="preserve"
   xmlns="http://www.w3.org/2000/svg"
   xmlns:svg="http://www.w3.org/2000/svg"><defs
     id="defs2" /><path
     d="M 16,1.5 C 7.992,1.5 1.5,7.992 1.5,16 1.5,24.008 7.992,30.5 16,30.5 24.008,30.5 30.5,24.008 30.5,16 30.5,7.992 24.008,1.5 16,1.5"
     style="fill:#ffffff;stroke-width:0.0593545"
     id="path2" /><path
     d="M 18.335947,14.848 V 10.4 h 2.752 v 11.2 h -2.752 v -4.384 h -4.656 V 21.6 H 10.912053 V 10.4 h 2.767894 v 4.448 z"
     fill="#000000"
     id="path3"
     style="stroke-width:2.66667" /></svg>
